X:290
T:Marsch ur Rasmus Storms nodebog
O:Håstrup, Danmark
B:Rasmus Storms nodebog, nr 14
B:[[http://130.226.229.125/grundtvig/spillemand/seStepGrafik.cfm?rec=14&bog_id=A:002&ejer=Storm,%20Rasmus|Dansk folkemindesamlings faksimil]]
N:Notboken är daterad till omkring 1760.
N:Ingår i kategorin [[Platser/Danmark]].
R:Marsch
Z:Nils L
M:C|
L:1/16
K:D
FG | A2A2 A2Bc d4>SA4 | B2d2 A2d2 G2AG F2A2 | Bdcd Adcd ((3A2BA) ((3G2AG) F2d2 | 
c2cd e2ef g6 fe | f2ed c2>d2 d6 :: de | f2f2 f2ed e2f^g a2Bc | 
d2d2 d2cB c2f2 e2dc | B2B2 B2cd A2>G2 F2d2 | G2G2 GBAG F2>E2 SD2 :|
(:musicend:)
Denna låt har väldigt [[!lite information]].

(:music:)
